X: 138
T: Childgrove
P: Longways for as many as will
%R: reel
B: "The Dancing-Master: Containing Directions and Tunes for Dancing" printed by W. Pearson for John Walsh, London ca. 1709
S: 7: DMDfD http://digital.nls.uk/special-collections-of-printed-music/pageturner.cfm?id=89751228 p.261
Z: 2013 John Chambers <jc:trillian.mit.edu>
N: The rhythms don't match at the start of the 2nd strain.  The 2nd dance phrase probably isn't correct.
M: C|
L: 1/8
K: Dm
% - - - - - - - - - - - - - - - - - - - - - - - - -
[|\
A2d2 d2e2 | f4 e2d2 | g2f2 e2d2 | e3d cBA2 | A2d2 d2e2 | f4 e2a2 | g3f (ef) (ed) | d4- d4 |][| fg | a2f2 f2a2 |
g2e2 e2g2 | f2d2 (de) (fd) | e2 A4 fg | a2f2 f2a2 | g2f2 ( ef) (ge) | f2(ed) (e2(d^c) | d4- d4 |]
% - - - - - - - - - - - - - - - - - - - - - - - - -
%%begintext align
%% First man and 2. man side to their Partners once and go back to back .| Then the wo. side to the 2.
%% man, and the 1. wo. to the 2. wo. at the same time, and go back to back :| Then turn sides and turn
%% your own Partner in the 2. place .| Then go the whole Figure with the 2. cu. :|
%% [DMDfD]
%%endtext
%%sep 1 8 500

%%sep 1 1 500
%%sep 1 1 500
